assets/img/blocks/form/email.svg

<?xml version="1.0" encoding="UTF-8"?>
<svg width="18px" height="15px" viewBox="0 0 18 15" version="1.1" xmlns="http://www.w3.org/2000/svg" xmlns:xlink="http://www.w3.org/1999/xlink">
    <!-- Generator: Sketch 58 (84663) - https://sketch.com -->
    <title>Mail</title>
    <desc>Created with Sketch.</desc>
    <g id="Page-1" stroke="none" stroke-width="1" fill="none" fill-rule="evenodd">
        <path d="M18.0000215,4.56027329 L18.0000215,12.5357292 C18.0000215,13.4196589 17.2768063,14.142874 16.3928767,14.142874 L16.3928767,14.142874 L1.60714477,14.142874 C0.723215148,14.142874 0,13.4196589 0,12.5357292 L0,12.5357292 L0,4.56027329 C0.301339645,4.8917469 0.642857909,5.18304189 1.01451014,5.43415826 C2.68192284,6.56920426 4.36942485,7.70425026 6.00670359,8.89956418 C6.85045459,9.52233278 7.8950987,10.2857265 8.98996607,10.2857265 L8.98996607,10.2857265 L9.22831457,10.2758158 C10.0983156,10.1976014 10.9297452,9.66938653 11.6454603,9.15402877 L11.6454603,9.15402877 L11.9933179,8.89956418 C13.6305966,7.71429491 15.3180986,6.56920426 16.995556,5.43415826 C17.3571635,5.18304189 17.6986818,4.8917469 18.0000215,4.56027329 L18.0000215,4.56027329 Z M16.3928767,0 C17.2667617,0 18.0000215,0.723215148 18.0000215,1.60714477 C18.0000215,2.73214611 17.1663151,3.74665625 16.2823855,4.3593802 L13.1439889,6.53200183 C12.6216668,6.89509751 12.1004609,7.25893722 11.581487,7.62389302 L10.8054444,8.18155737 C10.2824527,8.5485221 9.68593417,8.91789754 9.17644249,8.98810298 L8.98996607,9.00001073 C8.17634903,9.00001073 7.071437,8.07590248 6.41853444,7.62389302 C4.86161294,6.52902564 3.28460213,5.44420292 1.72768063,4.3593802 C1.01451014,3.87723676 0,2.74219077 0,1.82812718 C0,0.843751006 0.532366706,0 1.60714477,0 L16.3928767,0 Z" id="Mail" fill="#535F6A" fill-rule="nonzero"></path>
    </g>
</svg>

<svg xmlns="http://www.w3.org/2000/svg" width="18" height="15"><path fill="#535F6A" fill-rule="nonzero" d="M18 4.56v7.976c0 .884-.723 1.607-1.607 1.607H1.607A1.612 1.612 0 0 1 0 12.536V4.56c.301.332.643.623 1.015.874C2.682 6.57 4.369 7.704 6.007 8.9c.843.622 1.888 1.386 2.983 1.386l.238-.01c.87-.078 1.702-.607 2.417-1.122l.348-.254c1.638-1.186 3.325-2.33 5.003-3.466A5.917 5.917 0 0 0 18 4.56ZM16.393 0C17.267 0 18 .723 18 1.607c0 1.125-.834 2.14-1.718 2.752l-3.138 2.173c-.522.363-1.044.727-1.563 1.092l-.776.558c-.523.367-1.12.736-1.629.806L8.99 9c-.814 0-1.919-.924-2.571-1.376-1.557-1.095-3.134-2.18-4.691-3.265C1.015 3.877 0 2.742 0 1.83 0 .843.532 0 1.607 0h14.786Z"/></svg>
